X:1
T:Title
%%score { ( 1 3 4 ) | ( 2 5 ) }
L:1/8
M:3/4
K:G
V:1 treble nm="Grand Piano"
V:3 treble 
V:4 treble 
V:2 bass 
V:5 bass 
V:1
 z2 z2[Q:1/4=94] DG | z2 z B _B=B | [Fd]2 [Fc]2 [Ac][GB] | z2 z B [Ac][Fd] |[M:2/4] [GB]4 | %5
[M:1/4] BB |[M:3/4] z2 z B [^Ge]B | [EBd]2 [Ac]2 [DB][CA] | [G,B,G]3 [CF] [CE][CF] | %9
[M:2/4] [G,B,G]4 |[M:1/4] GG |[M:3/4] [G,EG]3 G GG | [B,G]4 BB | [GA]4 z2 |[M:2/4] [A,FA]4 | %15
[M:1/4] Bc |[M:3/4] [Bd]4 z2 | [EBd]2 [Ac]2 [DB][CA] | z2 [DB]4 |[M:2/4] [B,G]4 |] %20
V:2
 z2 z2 B,B, | [G,,G,]2 z D ^CD | [D,,D,]2 [D,A,C]2 [D,A,C]2 | [D,,D,]2 z G [D,A,C]2 | %4
[M:2/4] [G,,G,]2 [D,G,]2 |[M:1/4][K:treble] GG |[M:3/4][K:bass] [E,,E,]2 z[K:treble] ^G z G | %7
 z2 E2 C,E, | z2 z A, G,A, |[M:2/4] G,,4 |[M:1/4] B,=F |[M:3/4] z2 z [G,E] [=F,D][E,C] | %12
 [G,,D,]4[K:treble] DG | A,,3 A,, B,,^C, |[M:2/4] D,4 |[M:1/4][K:treble] GA | %16
[M:3/4][K:bass] [G,,G,]2 [D,G,][F,,F,] [E,,E,]2 | z2 E2 B,,C, | [D,,D,]2 [D,G,]2 z C | %19
[M:2/4] [G,,D,G,]4 |] %20
V:3
 x6 | [DB]4 z2 | x6 | [FA]4 z2 |[M:2/4] z2 B,2 |[M:1/4] x2 |[M:3/4] [^GB]4 z2 | x6 | x6 | %9
[M:2/4] x4 |[M:1/4] x2 |[M:3/4] x6 | x6 | A,3- [A,-CA] [A,-DA][A,EA] |[M:2/4] x4 |[M:1/4] x2 | %16
[M:3/4] z2 B,[A^d] [^Ge][EGB] | x6 | [B,G][B,D] z2 z A |[M:2/4] x4 |] %20
V:4
 x6 | z2 B,2 z2 | x6 | z2 C2 z2 |[M:2/4] x4 |[M:1/4] x2 |[M:3/4] z2 B,2 z2 | x6 | x6 |[M:2/4] x4 | %10
[M:1/4] x2 |[M:3/4] x6 | x6 | x6 |[M:2/4] x4 |[M:1/4] x2 |[M:3/4] x6 | x6 | z2 z2 F,2 | %19
[M:2/4] x4 |] %20
V:5
 x6 | z2 [D,G,]2 [G,B,]2 | x6 | z2 [D,A,]2 z2 |[M:2/4] x4 |[M:1/4][K:treble] x2 | %6
[M:3/4][K:bass] z2 [E,^G,]2[K:treble] [E,G,B,]2 | A,,4 z2 | D,6 |[M:2/4] x4 |[M:1/4] x2 | %11
[M:3/4] [C,,C,]6 | x4[K:treble] x2 | x6 |[M:2/4] x4 |[M:1/4][K:treble] x2 |[M:3/4][K:bass] x6 | %17
 [A,,A,]4 z2 | z2 z2 D,2 |[M:2/4] x4 |] %20

